X:1
T:Title
%%score { ( 1 4 ) | ( 2 3 ) }
L:1/8
M:4/4
K:Ab
V:1 treble nm="Grand Piano"
V:4 treble 
V:2 bass 
V:3 bass 
V:1
 z4 z2[Q:1/4=110] [CE]2 | [Ec]3 [Ec] [=D_c]2 [Fc]2 | [Ec]4 [CA]2 [CA]2 | B3 A c2 B2 | %4
[M:3/4] [CA]6 |[M:1/4] [CE]2 |[M:4/4] c3 c _c2 =c2 | [_Ge]4 [Fd]2 cB | A3 A [=DA]2 Bc |[M:3/4] B6 | %10
[M:1/4] E2 |[M:4/4] [CE]3 [CE] [_CF]2 [=CA]2 | [DB]4 [CA]2 [_GA]2 | [FA]3 [FA] [Fd]2 [=Ed]2 | %14
[M:3/4] [Ec]6 |[M:1/4] c2 |[M:4/4] e3 c c2 [_Ge]2 | e2 z2 [A,FA]2 [=EB]2 | c3 E c2 B2 | %19
[M:3/4] [CA]6 |] %20
V:2
 z4 z2 [A,,A,]2 | [A,,A,]3 [A,,A,] [A,,A,]2 [A,,A,]2 | [A,,A,]4 [A,,E,]2 [A,,A,]2 | %3
 [E,G,D]3 [E,A,C] [E,G,E]2 [E,G,D]2 |[M:3/4] [A,,A,]6 |[M:1/4] [A,,A,]2 | %6
[M:4/4] [A,E]3 [A,E] [A,=D]2 [A,E]2 | z4 z2 .[A,E]2 | [F,A,C]3 [F,A,C] [B,,F,]2 [B,,A,]2 | %9
[M:3/4] [E,G,D]6 |[M:1/4] [E,G,D]2 |[M:4/4] [A,,A,]3 [A,,A,] [A,,A,]2 [A,,A,]2 | %12
 [E,G,]4 [A,,A,]2 [A,C]2 | [D,D]3 [D,D] [D,A,]2 [D,A,]2 |[M:3/4] [A,,A,]6 | %15
[M:1/4][K:treble] [A,E]2 |[M:4/4] [A,C_G]3 [A,EG] [A,EG]2[K:bass] [C,A,]2 | %17
 z2[K:treble] d2[K:bass] D,2 [D,A,]2 | [E,A,E]3 [E,A,C] [E,A,E]2 [E,G,D]2 |[M:3/4] [A,,E,A,]6 |] %20
V:3
 x8 | x8 | x8 | x8 |[M:3/4] x6 |[M:1/4] x2 |[M:4/4] x8 | [C,A,]4 [D,A,]2 E,-[E,G,D] | x8 | %9
[M:3/4] x6 |[M:1/4] x2 |[M:4/4] x8 | x8 | x8 |[M:3/4] x6 |[M:1/4][K:treble] x2 | %16
[M:4/4] x6[K:bass] x2 | [D,A,]4[K:treble][K:bass] z4 | x8 |[M:3/4] x6 |] %20
V:4
 x8 | x8 | x8 | x8 |[M:3/4] x6 |[M:1/4] x2 |[M:4/4] x8 | x8 | z4 z2 =D2 |[M:3/4] x6 |[M:1/4] x2 | %11
[M:4/4] x8 | x8 | x8 |[M:3/4] x6 |[M:1/4] x2 |[M:4/4] x8 | F4 z4 | x8 |[M:3/4] x6 |] %20

